X: 1
T: The Dear Irish Boy
R: waltz
M: 3/4
L: 1/8
K: Edor
|:EF|G2 F3 E|F B3 AF|E2 F3 E|D4 EF|G2 F2 E2|F B3 AF|F2 E3 E|E4 EF|
G2 F3 E|F B3 AF|E2 F3 E|D4 EF|G2 F2 E2|F B3 AF|F2 E3 E|E4 e2|
e B3 e2|e B3 G2|F d3 F2| E D3 e2|e B3 e2|e B3 A2|B e3 f2|e4 ef|
g3 f e2|d B3 AG| F d3 F2|E D3 EF|G3 A B2|e f-f>e d/B/A/F/ |G2 F3 B|E4 :|


Tune 6623	Setting 22480

